public/images/logos/you.svg

<?xml version="1.0" encoding="UTF-8"?><svg id="a" xmlns="http://www.w3.org/2000/svg" xmlns:xlink="http://www.w3.org/1999/xlink" viewBox="0 0 169.1 80"><defs><clipPath id="c"><rect y="14.93" width="169.1" height="50" style="fill:none; stroke-width:0px;"/></clipPath></defs><g id="b"><g style="clip-path:url(#c);"><path d="m20.14,62.16c0,.77.62,1.39,1.39,1.39h4.17c.77,0,1.39-.62,1.39-1.39v-22.57c11.04-1.62,19.44-10.74,20.14-21.87,0-.77-.62-1.39-1.39-1.39h-4.17c-.42-.11-.87-.01-1.22.26-.34.27-.53.69-.52,1.13-.72,8.47-7.82,14.96-16.32,14.93-8.43-.13-15.44-6.54-16.32-14.93,0-.77-.62-1.39-1.39-1.39H1.39c-.77,0-1.39.62-1.39,1.39.7,11.13,9.1,20.26,20.14,21.87v22.57Z" style="stroke-width:0px;"/><path d="m72.57,14.93c-7.51-.04-14.63,3.3-19.41,9.08-4.78,5.79-6.7,13.42-5.24,20.78,1.42,7.36,6.06,13.69,12.66,17.26,6.59,3.57,14.44,3.98,21.37,1.14,7.83-3.12,13.55-9.98,15.23-18.24,1.68-8.26-.91-16.8-6.9-22.74-4.7-4.68-11.07-7.31-17.71-7.29Zm0,42.71c-5.32-.02-10.36-2.39-13.78-6.47-3.41-4.08-4.85-9.46-3.93-14.71.95-5.3,4.25-9.87,8.98-12.44,4.73-2.57,10.37-2.84,15.32-.76,5.47,2.33,9.44,7.2,10.62,13.03,1.18,5.83-.59,11.86-4.72,16.14-3.33,3.29-7.82,5.16-12.5,5.21Z" style="stroke-width:0px;"/><path d="m110.42,39.93c0,4.39,1.77,8.59,4.9,11.66,3.14,3.07,7.38,4.75,11.76,4.66,8.94-.18,16.14-7.38,16.32-16.32v-22.22c0-.77.62-1.39,1.39-1.39h4.51c.77,0,1.39.62,1.39,1.39v22.22c0,13.04-10.57,23.61-23.61,23.61-6.32.09-12.42-2.35-16.92-6.79-4.5-4.44-7.04-10.5-7.04-16.82v-22.22c0-.77.62-1.39,1.39-1.39h4.51c.77,0,1.39.62,1.39,1.39v22.22Z" style="stroke-width:0px;"/><path d="m159.72,26.05c-1.06-.02-2.06.44-2.74,1.25-.68.81-.95,1.88-.73,2.92.26,1.41,1.37,2.51,2.78,2.78,1.03.21,2.11-.06,2.92-.73.81-.68,1.27-1.68,1.25-2.74,0-1.92-1.55-3.47-3.47-3.47Zm0,5.56c-.84.02-1.57-.57-1.74-1.39-.22-.51-.2-1.09.08-1.57.27-.48.76-.8,1.31-.86.56-.25,1.21-.18,1.71.18.5.36.77.95.72,1.56.14.58-.04,1.2-.46,1.62-.42.42-1.04.6-1.62.46Zm2.43,7.99c-.57,0-1.04.47-1.04,1.04.08.29.27.53.54.66.27.13.57.15.85.04.44-.15.72-.58.69-1.04-.15-.44-.58-.72-1.04-.69Zm-.35-5.9l-.35.35c-.19,0-.35.16-.35.35s.16.35.35.35c.67.77.59,1.93-.17,2.6-.77.67-1.93.59-2.6-.17-.77-.58-.92-1.66-.35-2.43.19-.1.27-.33.17-.52-.1-.19-.33-.27-.52-.17l-.35-.35c0-.19-.16-.35-.35-.35s-.35.16-.35.35c-.79,1.05-.92,2.46-.33,3.64.59,1.18,1.79,1.92,3.11,1.92.98,0,1.92-.41,2.59-1.14.66-.73.98-1.7.89-2.68l-.69-1.74c0-.19-.16-.35-.35-.35s-.35.16-.35.35Zm-2.78-15.97h3.82c.19,0,.35-.16.35-.35v-.69c0-.19-.15-.35-.35-.35h-3.82c-.8,0-1.57.33-2.1.93-.53.6-.78,1.4-.68,2.19l1.04,1.39c-.87.79-1.15,2.04-.69,3.13-.19,0-.35.16-.35.35v.69c0,.19.16.35.35.35h6.25c.19,0,.35-.16.35-.35v-.69c0-.19-.15-.35-.35-.35h-3.82c-.57,0-1.04-.47-1.04-1.04-.12-.33-.06-.69.15-.97.21-.28.54-.44.89-.41h3.82c.19,0,.35-.16.35-.35v-.69c0-.19-.15-.35-.35-.35h-3.82c-.57,0-1.04-.47-1.04-1.04-.12-.33-.06-.69.15-.97.21-.28.54-.44.89-.41Z" style="stroke-width:0px;"/></g></g></svg>

<?xml version="1.0" encoding="UTF-8" standalone="no"?>
<!DOCTYPE svg PUBLIC "-//W3C//DTD SVG 1.1//EN" "http://www.w3.org/Graphics/SVG/1.1/DTD/svg11.dtd">
<!-- Created with Vectornator (http://vectornator.io/) -->
<svg height="100%" stroke-miterlimit="10" style="fill-rule:nonzero;clip-rule:evenodd;stroke-linecap:round;stroke-linejoin:round;" version="1.1" viewBox="0 0 151.588 80" width="100%" xml:space="preserve" xmlns="http://www.w3.org/2000/svg" xmlns:xlink="http://www.w3.org/1999/xlink">
<defs/>
<clipPath id="ArtboardFrame">
<rect height="80" width="151.588" x="0" y="0"/>
</clipPath>
<g clip-path="url(#ArtboardFrame)" id="b">
<g opacity="1">
<clipPath clip-rule="nonzero" id="ClipPath">
<path d="M0 14.93L169.1 14.93L169.1 14.93L169.1 64.93L169.1 64.93L0 64.93L0 64.93L0 14.93L0 14.93Z"/>
</clipPath>
<g clip-path="url(#ClipPath)">
<path d="M20.14 62.16C20.14 62.93 20.76 63.55 21.53 63.55L25.7 63.55C26.47 63.55 27.09 62.93 27.09 62.16L27.09 39.59C38.13 37.97 46.53 28.85 47.23 17.72C47.23 16.95 46.61 16.33 45.84 16.33L41.67 16.33C41.25 16.22 40.8 16.32 40.45 16.59C40.11 16.86 39.92 17.28 39.93 17.72C39.21 26.19 32.11 32.68 23.61 32.65C15.18 32.52 8.17 26.11 7.29 17.72C7.29 16.95 6.67 16.33 5.9 16.33L1.39 16.33C0.62 16.33 0 16.95 0 17.72C0.7 28.85 9.1 37.98 20.14 39.59C20.14 39.59 20.14 62.16 20.14 62.16Z" fill="#000000" fill-rule="nonzero" opacity="1" stroke="none"/>
<path d="M72.57 14.93C65.06 14.89 57.94 18.23 53.16 24.01C48.38 29.8 46.46 37.43 47.92 44.79C49.34 52.15 53.98 58.48 60.58 62.05C67.17 65.62 75.02 66.03 81.95 63.19C89.78 60.07 95.5 53.21 97.18 44.95C98.86 36.69 96.27 28.15 90.28 22.21C85.58 17.53 79.21 14.9 72.57 14.92L72.57 14.93ZM72.57 57.64C67.25 57.62 62.21 55.25 58.79 51.17C55.38 47.09 53.94 41.71 54.86 36.46C55.81 31.16 59.11 26.59 63.84 24.02C68.57 21.45 74.21 21.18 79.16 23.26C84.63 25.59 88.6 30.46 89.78 36.29C90.96 42.12 89.19 48.15 85.06 52.43C81.73 55.72 77.24 57.59 72.56 57.64L72.57 57.64Z" fill="#000000" fill-rule="nonzero" opacity="1" stroke="none"/>
<path d="M110.42 39.93C110.42 44.32 112.19 48.52 115.32 51.59C118.46 54.66 122.7 56.34 127.08 56.25C136.02 56.07 143.22 48.87 143.4 39.93L143.4 17.71C143.4 16.94 144.02 16.32 144.79 16.32L149.3 16.32C150.07 16.32 150.69 16.94 150.69 17.71L150.69 39.93C150.69 52.97 140.12 63.54 127.08 63.54C120.76 63.63 114.66 61.19 110.16 56.75C105.66 52.31 103.12 46.25 103.12 39.93L103.12 17.71C103.12 16.94 103.74 16.32 104.51 16.32L109.02 16.32C109.79 16.32 110.41 16.94 110.41 17.71L110.41 39.93L110.42 39.93Z" fill="#000000" fill-rule="nonzero" opacity="1" stroke="none"/>
</g>
</g>
</g>
</svg>
